icons/vacation.svg

<svg width="24" height="24" viewBox="0 0 24 24" fill="none" xmlns="http://www.w3.org/2000/svg">
<path fill-rule="evenodd" clip-rule="evenodd" d="M7.85915 10.5573C8.02617 10.6426 8.20593 10.6764 8.38036 10.6646C8.5565 10.6759 8.73538 10.6406 8.89786 10.558C9.56663 10.2177 10.1885 10.0092 10.7778 9.90394V16L12.7778 16V9.92196C13.3989 10.041 14.0278 10.2615 14.6846 10.5712C14.8407 10.6448 15.0103 10.6755 15.1771 10.6645C15.3602 10.6771 15.549 10.6395 15.7222 10.5455C16.417 10.1682 16.9494 10.027 17.4221 10.0283C17.8935 10.0295 18.4086 10.1727 19.0691 10.5404C19.3789 10.7128 19.7567 10.7084 20.0623 10.5288C20.3679 10.3491 20.5556 10.0211 20.5556 9.66667C20.5556 5.29342 16.4754 2 11.7778 2C7.08012 2 3 5.29342 3 9.66667C3 10.0254 3.19214 10.3566 3.50353 10.5347C3.81491 10.7128 4.19784 10.7105 4.50703 10.5286C5.12122 10.1673 5.61812 10.0313 6.09006 10.0337C6.57361 10.0363 7.12975 10.1848 7.85915 10.5573ZM5.26474 8.10958C5.53824 8.05819 5.81624 8.03227 6.10063 8.03377C6.57775 8.03629 7.04608 8.11594 7.51369 8.25794C7.64433 6.94632 7.95563 5.73913 8.41177 4.74459C6.87895 5.48238 5.75104 6.70341 5.26474 8.10958ZM17.4274 8.02827C16.9564 8.02702 16.497 8.10193 16.0402 8.24146C15.9086 6.93622 15.598 5.73496 15.1438 4.74459C16.6791 5.48358 17.8082 6.70737 18.2932 8.11643C18.0094 8.05949 17.7215 8.02905 17.4274 8.02827ZM11.7778 4C12.1154 4 12.6903 4.29971 13.2404 5.39984C13.6032 6.12542 13.8835 7.07812 14.0199 8.17152C13.348 7.96913 12.6563 7.84362 11.938 7.82258C11.1504 7.79951 10.3537 7.90273 9.53867 8.14785C9.67614 7.06437 9.95501 6.12018 10.3152 5.39984C10.865 4.3003 11.4401 4.00032 11.7778 4Z" fill="#9AA1B4"/>
<path d="M21.7071 12.2929C22.0976 12.6834 22.0976 13.3166 21.7071 13.7071L18.4142 17L21.7071 20.2929C22.0976 20.6834 22.0976 21.3166 21.7071 21.7071C21.3166 22.0976 20.6834 22.0976 20.2929 21.7071L17 18.4142L16.2071 19.2071C16.0196 19.3946 15.7652 19.5 15.5 19.5H5.91421L3.70711 21.7071C3.31658 22.0976 2.68342 22.0976 2.29289 21.7071C1.90237 21.3166 1.90237 20.6834 2.29289 20.2929L4.79289 17.7929C4.98043 17.6054 5.23478 17.5 5.5 17.5H15.0858L20.2929 12.2929C20.6834 11.9024 21.3166 11.9024 21.7071 12.2929Z" fill="#9AA1B4"/>
</svg>

<?xml version="1.0" encoding="utf-8"?>
<!-- Generator: Adobe Illustrator 22.1.0, SVG Export Plug-In . SVG Version: 6.00 Build 0)  -->
<svg version="1.1" id="Layer_1" xmlns="http://www.w3.org/2000/svg" xmlns:xlink="http://www.w3.org/1999/xlink" x="0px" y="0px"
	 viewBox="0 0 24 24" style="enable-background:new 0 0 24 24;" xml:space="preserve">
<style type="text/css">
	.st0{fill:#9AA1B4;}
</style>
<path class="st0" d="M11.8,2C7.1,2,3,5.3,3,9.7c0,0.4,0.2,0.7,0.5,0.9c0.3,0.2,0.7,0.2,1,0C5.1,10.2,5.6,10,6.1,10
	c0.5,0,1,0.2,1.8,0.5c0.2,0.1,0.3,0.1,0.5,0.1c0.2,0,0.4,0,0.5-0.1c0.7-0.3,1.3-0.5,1.9-0.7V16h2V9.9c0.6,0.1,1.3,0.3,1.9,0.6
	c0.2,0.1,0.3,0.1,0.5,0.1c0.2,0,0.4,0,0.5-0.1c0.7-0.4,1.2-0.5,1.7-0.5c0.5,0,1,0.1,1.6,0.5c0.3,0.2,0.7,0.2,1,0
	c0.3-0.2,0.5-0.5,0.5-0.9C20.6,5.3,16.5,2,11.8,2z M7.5,8.3C7,8.1,6.6,8,6.1,8c-0.3,0-0.6,0-0.8,0.1c0.5-1.4,1.6-2.6,3.1-3.4
	C8,5.7,7.6,6.9,7.5,8.3z M11.9,7.8c-0.8,0-1.6,0.1-2.4,0.3c0.1-1.1,0.4-2,0.8-2.7C10.9,4.3,11.4,4,11.8,4c0.3,0,0.9,0.3,1.5,1.4
	c0.4,0.7,0.6,1.7,0.8,2.8C13.3,8,12.7,7.8,11.9,7.8z M17.4,8C17,8,16.5,8.1,16,8.2c-0.1-1.3-0.4-2.5-0.9-3.5c1.5,0.7,2.7,2,3.1,3.4
	C18,8.1,17.7,8,17.4,8z"/>
<path class="st0" d="M21.7,12.3c0.4,0.4,0.4,1,0,1.4L18.4,17l3.3,3.3c0.4,0.4,0.4,1,0,1.4c-0.4,0.4-1,0.4-1.4,0L17,18.4l-0.8,0.8
	c-0.2,0.2-0.4,0.3-0.7,0.3H5.9l-2.2,2.2c-0.4,0.4-1,0.4-1.4,0c-0.4-0.4-0.4-1,0-1.4l2.5-2.5c0.2-0.2,0.4-0.3,0.7-0.3h9.6l5.2-5.2
	C20.7,11.9,21.3,11.9,21.7,12.3z"/>
</svg>
